X: 32284
T: Pig Ankle Rag
R: hornpipe
M: 4/4
K: Dmajor
af|:gecA2 Aaf|gecA2 ABA|dABA dABA|dAB d3 af|
gecA2 Aaf|gecA2 ABA|dABA dABA|dABd3 d2|
B2 d2 e2 d2|f a2 b2 a f2|efea2 f e2|1 d6 af:|2 d4 c2B2||
|:ABcA BcAB|cAB c2 B A2|ABdA BdAB|dAB d2 B A2|
ABcA BcAB|cAB c2 B A2|dABA dABA|dAB d3 d2|
B2 d2 e2 d2|f a2 b2 a f2|efea2 f e2|1 d4 c2B2:|2 d8||

